!!! OTL: Berkowitz302
!!! Chapter: 1
!!! Section: III
!!! Page: 72
!!! Mode: 
!!! Encoder: DJB
**kern
*staff1
*I"Piano
=1-
*clefC3
*k[f#]
*e:
*M6/8
8r
8r
8r
8r
16r
16B\LL
16e\
16g\JJ
=2
4b\
16a\LL
16g\JJ
8a\
16r
16B\LL
16d#\
16f#\JJ
=3
4a\
16g\LL
16f#\JJ
8g\
8r
8e\
=4
8d#\L
8e\
8e#\J
8.f#\L
16g\K
8a\J
=5
8b\L
8g\
8f#\J
8e\
16r
16d\LL
16g\
16b\JJ
=6
!!linebreak:original
8.dd\L
16cc\K
8b\J
8cc\
16r
16d\LL
16f#\
16a\JJ
=7
8.cc\L
16b\K
8a#\J
8b\
8r
8g#\
=8
8a\
8r
8f#\
8g\
8r
8e\
=9
8.f#\L
16e\L
16d#\
16f#\JJ
8e\
4r
==
*-
